X:159
T:Strathglass House
R:Slow Strathspey
S:MacDonald - Skye Collection
N:pg.158
M:C
L:1/8
Q:1/4=120
K:D
B|D/D/D D>E FAAB|A>F d>F [A,3E3]F|D/D/D D>E (FA)AB|A<F d>F A3:|
B|A/A/A d>A B>A d<F|E/E/E F>D [A,3E3] F|A/A/A d>A B>Ad>F|A/A/A dF A3B|
A/A/A d>A B>Ad<F|E/E/E F>D E>FGB|A>FGE F>DDF A2||
